X:1
T:Gloria in excelsis Deo
T:Carl Loewe
T:Gloria in excelsis Deo
T:CPDL - Creative Commons Attribution Non Commercial 3.0
T:CPDL - Creative Commons Attribution Non Commercial 3.0
C:Carl Loewe
Z:CPDL - Creative Commons Attribution Non Commercial 3.0
%%score [ 1 2 3 4 ]
L:1/8
M:4/4
K:C
V:1 treble nm="S"
V:2 treble nm="A"
V:3 treble-8 nm="T"
V:4 bass nm="B"
V:1
"^I. Chor"!f! cc/c/ cc c2 c2 | (c4 f4) | !fermata!e8 ||"^II. Chor"!f! c2 cc c2 cc | (c4 f4) | %5
w: Glo- ri- a in ex- cel- sis|De- *|o!|Eh- re sei Gott in der|Hö- *|
 !fermata!e8 ||!p!"^I. Chor" c2 A2 A2 ^G2 | !fermata!A6 ||!p!"^II. Chor" A2 | A4 A2 A2 | %10
w: he,|Et in ter- ra|pax|Und|Frie- de auf|
 (A2 ^G2) !fermata!A4 ||!f!"^I. Chor" A2 | c2 cc c2 c2 | c2 c2 (c2 d2) | !fermata!e8 || %15
w: Er~- * den!|ho-|mi- ni- bus bo- nae|vo- lun- ta- *|tis.|
!f!"^II. Chor" e2 e2 e2 ee | (e4 d2) c2 | (c4 B4) | !fermata!c8 |] %19
w: Und den Men- schen ein|Wohl- * ge-|fal- *|len!|
V:2
!f! GG/G/ GG G2 G2 | A8 | !fermata!G8 ||!f! G2 GG G2 GG | A8 | !fermata!G8 ||!p! c2 A2 F2 E2 | %7
 !fermata!E6 ||!p! A2 | A4 A2 A2 | (F2 E2) !fermata!E4 ||!f! E2 | E2 EE E2 E2 | A2 A2 (A2 B2) | %14
 !fermata!c8 ||!f! G2 G2 G2 GG | A6 A2 | G8 | !fermata!G8 |] %19
V:3
!f! ee/e/ ee e2 e2 | (f4 c4) | !fermata!c8 ||!f! e2 ee e2 ee | (f4 c4) | !fermata!c8 || %6
w: Glo- ri- a in ex- cel- sis|De- *|o!|Eh- re sei Gott in der|Hö- *|he,|
!p! c2 A2 B2 B2 | !fermata!A6 ||!p! A2 | A4 A2 A2 | B4 !fermata!A4 ||!f! c2 | c2 cc c2 c2 | %13
w: Et in ter- ra|pax|Und|Frie- de auf|Er~- den!|ho-|mi- ni- bus bo- nae|
 c2 c2 f4 | !fermata!g8 ||!f! c2 c2 c2 cc | (c4 f2) e2 | (d4 e2 f2) | !fermata!e8 |] %19
w: vo- lun- ta-|tis.|Und den Men- schen ein|Wohl- * ge-|fal- * *|len!|
V:4
!f! CC/C/ CC C2 C2 | (F,6 A,B,) | !fermata!C8 ||!f! C2 CC C2 CC | (F,6 A,B,) | !fermata!C8 || %6
!p! C2 A,2 D,2 E,2 | !fermata!A,,6 ||!p! A,2 | A,4 A,2 A,2 | (D,2 E,2) !fermata!A,,4 ||!f! A,2 | %12
 A,2 A,A, A,2 A,2 | F,2 F,2 F,4 | !fermata!C8 ||!f! C,2 C,2 C,2 C,C, | F,6 F,2 | (G,4 G,,4) | %18
 !fermata!C,8 |] %19

